X:622
T:Maid Behind The Bar, The
C:Joe Buchanan's Scottish Tome - Page 183.3
I:183 3
Z:Carl Allison
R:Reel
L:1/8
M:4/4
K:D
E | "D"FAAB AFED | "D"FAAB A2 (de) | "Bm"fBBA Bcde | "Bm"fde(f "A7"e)dBA | 
"D"FAAB AFED | "D"FAAB A2 (de) | "Bm"fBBA BcdB | "A7"AFEF "D"D2 :| 
g2 | "D"faag fdde | "D"fdad fddf | "Em"efga bee(f | "Em"ge)be geeg | 
"D"faaf "Bm"b2 (af) | "D"defd "A7"e2 (de) | "Bm"fdBc "G"dedB | "A7"AFEF "D"D2 :| 

